X: 2381
T: Look Behind You. a Reel.
%R: reel
B: Niel Gow & Sons "Complete Repository" v.2 p.38 #1
Z: 2021 John Chambers <jc:trillian.mit.edu>
M: C
L: 1/8
K: D
% - - - - - - - - - -
% Voice 1 formatted for regularity.
V: 1 staves=2
(B |\
A).DF>D EB,B,B | ADF>E d2df |\
gfed eBBd | FD F/G/A d2-d :|
|: f |\
dg (f/g/a) be-e>f | dg f/g/a fde(c |\
d)BAF E>FGB | FD F/G/A d2-d :|
% - - - - - - - - - -
% Voice 2 preserves the book's staff layout.
V: 2 clef=bass middle=d
z |\
d2d2 e2e2 | d2d2 d2d2 |\
d2d2 e2e2 | d2A2 d2d :|\
|: z |\
d2d2 e2e2 | d2d2 d2a2 |
g2f2 e2e2 | d2A2 D2D :|


